icons/forge-filled.svg

<svg width="256" height="256" viewBox="0 0 256 256" fill="none" xmlns="http://www.w3.org/2000/svg">
<rect width="256" height="256" rx="60" fill="#1EB786" />
<path d="M217.997 56H60.1329C59.1525 56.0347 58.2101 56.3867 57.4481 57.0029C56.6862 57.6191 56.1461 58.466 55.9095 59.4155L52.0471 73.217C51.6861 74.819 52.4126 75.908 53.5812 76.7045C59.772 78.5945 92.9185 79.3955 87.8198 97.778L86.7233 102.863L73.2499 153.137L72.0812 158.15C67.0546 176.605 49.3533 177.333 41.9939 179.219C40.5365 179.655 39.3001 181.181 38.9346 182.706L35.0722 196.513C34.7112 198.475 35.8032 200 37.7705 200H102.096C104.064 200 105.959 198.47 106.324 196.513L117.907 151.976C118.39 150.023 120.118 148.633 122.13 148.561H163.363C165.258 148.561 167.225 146.963 167.591 145.073L173.709 121.241C174.147 119.351 172.978 117.83 171.016 117.83H129.846C127.884 117.83 126.787 116.3 127.153 114.343L132.982 92.8325C133.434 90.8795 135.126 89.4575 137.134 89.3495H199.131C200.125 89.3316 201.085 88.9865 201.862 88.368C202.639 87.7495 203.189 86.8922 203.427 85.9295L219.964 59.78C220.695 57.53 219.964 56 217.997 56Z" fill="white"/>
</svg>

<svg xmlns="http://www.w3.org/2000/svg" width="256" height="256" fill="none"><rect width="256" height="256" fill="#1EB786" rx="60"/><path fill="#fff" d="M217.997 56H60.133a4.52 4.52 0 0 0-2.685 1.003 4.5 4.5 0 0 0-1.538 2.413l-3.863 13.801c-.36 1.602.366 2.691 1.534 3.487 6.191 1.89 39.337 2.692 34.239 21.074l-1.097 5.085-13.473 50.274-1.169 5.013c-5.026 18.455-22.728 19.183-30.087 21.069-1.458.436-2.694 1.962-3.06 3.487l-3.862 13.807c-.36 1.962.731 3.487 2.698 3.487h64.326c1.968 0 3.863-1.53 4.228-3.487l11.583-44.537a4.51 4.51 0 0 1 4.223-3.415h41.233c1.895 0 3.862-1.598 4.228-3.488l6.118-23.832c.438-1.89-.731-3.411-2.693-3.411h-41.17c-1.962 0-3.059-1.53-2.693-3.487l5.829-21.51a4.51 4.51 0 0 1 4.152-3.483h61.997a4.5 4.5 0 0 0 2.731-.982 4.5 4.5 0 0 0 1.565-2.438l16.537-26.15c.731-2.25 0-3.78-1.967-3.78"/></svg>
